X: 340
T:Maid of Tullyknockbrine, The
M:C|
L:1/8
R:reel
D:Frankie Gavin: Live in Concert
Z:Devin McCabe
K:G
G,2DG, B,DG,B,|DG,B,D ECA,B,|G,2DG, B,DG,B,|DECA, B,G,A,B,|
!G,2DG, B,DG,B,|DG,B,D ECA,B,|G,2DG, B,CDc|dBcA BG B/2c/2d|
!e/2f/2g fg egfe|dgfd Adfd|egfg efga|bgaf gfed|
!efge Bege|defd A/2B/2A FA|~G3A Bcde|dBcA ~B2AF||
